!!!COM: Scriabin, Alexander
!!!OTL@@FR: Étude en fa dièse majeur
!!!OTL@@EN: Etude in F# Major
!!!OPR@@FR: 8 Études
!!!OPR@@EN: 8 Etudes
!!!OPS: 42
!!!ONM: 4
!!!ODT: 1903
!!!AGN: Etude
**kern	**kern	**dynam
*staff2	*staff1	*staff1/2
*Ipiano	*Ipiano	*
*clefF4	*clefG2	*
*k[f#c#g#d#a#e#]	*k[f#c#g#d#a#e#]	*
*F#:	*F#:	*
*M3/4	*M3/4	*
=1	=1	=1
*	*^	*
*	*	*^	*
12r	4.e#\	2cc#	4.gg#	p >
12G##XL	.	.	.	)
12A#J	.	.	.	)
12c#L	.	.	.	)
12A#	.	.	.	)
.	4f#\	.	8ff#	)
12C#J	.	.	.	)
12A#L	.	4ryy	8b#XL	)
12C#	.	.	.	)
.	8f#\	.	8cc#J	]
12FF#J	.	.	.	.
*	*	*v	*v	*
=2	=2	=2	=2
12r	2f# 2cc#	4.ff#	>
12G#L	.	.	)
12AnJ	.	.	)
12c#L	.	.	)
12A	.	.	)
.	.	8een	)
12C#J	.	.	)
12c#L	4en	8g#L	)
12C#	.	.	)
.	.	8anJ	)
12FF#J	.	.	]
=3	=3	=3	=3
12r	2dn 2f#	4.cc#	>
12G#L	.	.	)
12AnJ	.	.	)
12dnL	.	.	)
12A	.	.	)
.	.	8b	)
12BBJ	.	.	]
12AL	4r	8c#L	.
12BB	.	.	.
.	.	8dJ	.
12FF#J	.	.	.
*	*v	*v	*
!!LO:LB:g=original
=4	=4	=4
12r	12f#L	<
12GnL	12en	(
12G#XJ	12e#XJ	[
*	*^	*
12e#L	8a#L	4dd#	.
12B	.	.	.
.	8f##XJ	.	.
12C#J	.	.	.
*	*	*^	*
12BnL	4e#\	8a#L	8b#XL	>
12C#	.	.	.	)
.	.	8g#J	8cc#J	)
12FF#J	.	.	.	]
=5	=5	=5	=5	=5
12r	4.e#\	2cc#	4.gg#	>
12G##XL	.	.	.	)
12A#J	.	.	.	)
12c#L	.	.	.	)
12A#	.	.	.	)
.	4f#\	.	8ff#	)
12C#J	.	.	.	)
12A#L	.	4ryy	8b#XL	)
12C#	.	.	.	)
.	8f#\	.	8cc#J	]
12FF#J	.	.	.	.
*	*	*v	*v	*
=6	=6	=6	=6
12r	2f# 2cc#	4.ff#	>
12G#L	.	.	)
12AnJ	.	.	)
12c#L	.	.	)
12A	.	.	)
.	.	8een	)
12C#J	.	.	)
12c#L	4en	8g#L	]
12C#	.	.	.
.	.	8anJ	.
12FF#J	.	.	.
=7	=7	=7	=7
12r	2dn 2f#	4.cc#	>
12G#L	.	.	)
12AnJ	.	.	)
12dnL	.	.	)
12A	.	.	)
.	.	8b	)
12BBJ	.	.	]
12f#L	4r	8c#L	.
12A	.	.	.
.	.	8dJ	.
12BBJ	.	.	.
!!LO:LB:g=original
=8	=8	=8	=8
12r	2dn	8f#L	.
12F##XL	.	.	.
.	.	8enJ	.
12G#J	.	.	.
12enL	.	8a#L	<
12G#	.	.	.
.	.	8bJ	.
12EnJ	.	.	.
12c#L	4g# 4b	8ff#L	.
12e	.	.	.
.	.	8eenJ	.
12dnJ	.	.	.
=9	=9	=9	=9
*	*	*^	*
12r	4.g#\	2een	4.bb	mf
12B#XL	.	.	.	.
12c#J	.	.	.	.
12enL	.	.	.	.
12c#	.	.	.	.
.	4an\	.	8aan	.
12EnJ	.	.	.	.
12c#L	.	4ryy	8dd#L	.
12E	.	.	.	.
.	8a\	.	8eenJ	.
12AAnJ	.	.	.	.
*	*	*v	*v	*
=10	=10	=10	=10
12r	2.an	8aanL	.
12c#L	.	.	.
.	.	8cc#J	.
12enJ	.	.	.
12c#L	.	8een	.
12F#	.	.	.
.	.	4ddn	.
12dnJ	.	.	.
12F#L	.	.	.
12FF#J	.	.	.
.	.	8cc#	.
12r	.	.	.
!!LO:LB:g=original
=11	=11	=11	=11
*	*	*^	*
12r	2f#\	8cc#/L	4ryy	.
12c##XL	.	.	.	.
.	.	[8b#XJ	.	.
12d#J	.	.	.	.
12f#L	.	4b#]	8aa#X	.
12d#	.	.	.	.
.	.	.	4gg#	.
12G#J	.	.	.	>
12B#XL	4ryy	4f# 4g#	.	.
12F#	.	.	.	.
.	.	.	8ee#	.
12GG#J	.	.	.	.
*	*	*v	*v	*
=12	=12	=12	=12
12C#L	2e# 2g#	[4dd#	.
12E#	.	.	.
12B#XJ	.	.	.
4c#	.	12dd#L]	.
.	.	12cc#	.
.	.	12b#XJ	.
4e#	4g#	12cc#L	.
.	.	12dd#	.
.	.	12ee#J	.
*	*v	*v	*
=13	=13	=13
12d#L	12bL 12dd# 12ff#	pp
12E#	12.b 12.dd# 12.gg#	.
12F#J	.	.
.	24f#Jk 24b 24dd#	.
12BL	4f# 4b 4dd#	.
12F#	.	.
12GG#J	.	.
12F#L	12f#L 12b 12cc#	<
12GG#	12f# 12b 12dd#	(
12CC#J	12d#J 12f# 12b	[
!!LO:LB:g=original
=14	=14	=14
*	*^	*
12r	2.B 2.d#	2a#	>
12E#L	.	.	)
12F#J	.	.	)
12BL	.	.	)
12F#	.	.	)
12GG#J	.	.	)
12F#L	.	4g#	]
12GG#	.	.	.
12CC#J	.	.	.
=15	=15	=15	=15
*^	*	*	*
12f#L	4f#	4rf	8rff	.
12G#	.	.	.	.
.	.	.	8g#	.
[12A#J	.	.	.	.
*v	*v	*	*	*
12A#L] 12f#\	4re	[4dd#	.
12B	.	.	.
12C#J	.	.	.
12e#L	12f##XL	6dd#]	.
12B	12g#	.	<
12C#J	12g##XJ	12dd#	[
=16	=16	=16	=16
12f#L	4a#	4dd#	.
12A#	.	.	.
12C#J	.	.	.
12A#L	4f#	12cc#L	.
12C#	.	12dd#	.
12FF#J	.	12ee#J	.
4a#	4cc#	12ff#L	.
.	.	12gg#	.
.	.	12aa#J	.
*	*v	*v	*
!!LO:LB:g=original
=17	=17	=17
12g#L	12eenL 12gg# 12bb	p
12A#	12.ee 12.gg# 12.ccc#	.
12BJ	.	.
.	24bJk 24ee 24gg#	.
12enL	4b 4ee 4gg#	.
12B	.	.
12C#J	.	.
12BL	12bL 12ee 12ff#	<
12C#	12b 12ee 12gg#	(
12FF#J	12g#J 12b 12ee	[
=18	=18	=18
*	*^	*
12r	2.en 2.g#	2dd#	>
12A#L	.	.	)
12BJ	.	.	)
12enL	.	.	)
12B	.	.	)
12C#J	.	.	)
12BL	.	4cc#	]
12C#	.	.	.
12FF#J	.	.	.
=19	=19	=19	=19
*^	*	*	*
12bL	4b	4r	8r	.
12c#	.	.	.	.
.	.	.	8cc#	.
[12d#J	.	.	.	.
*v	*v	*	*	*
12d#L] 12b\	4r	[4gg#	.
12en	.	.	.
12F#J	.	.	.
12a#L	12b#XL	6gg#]	.
12e	12cc#	.	<
12F#J	12cc##XJ	12gg#	[
!!LO:LB:g=original
=20	=20	=20	=20
12bL	4dd#	[4gg#	>
12d#	.	.	)
12F#J	.	.	)
12d#L	4r	12gg#L]	)
12F#	.	12ff#	]
12BBJ	.	12ee#J	.
4r	4r	12ff#L	<
.	.	12gg#	.
.	.	12aa#J	.
*	*v	*v	*
=21	=21	=21
12f#L	12dd#L 12ff# 12ccc#	f
12B	12f# 12b 12cc##X	.
12D#J	12f#J 12b 12dd#	.
*^	*	*
12A#L	6A#	6dd# 6ff# 6ccc#X	.
12D#	.	.	.
12GG#J	12B	[12dd# [12ff# [12bb	.
*v	*v	*	*
12D#\L	12dd#] 12ff#] 12bb]	.
12B	12r	.
12f#J	12b 12dd# 12aa#	.
=22	=22	=22
12f#L	4.b 4.dd# 4.aa#	.
12B	.	.
12D#J	.	.
12BL	.	.
12D#	.	.
.	8b 8dd# 8gg#	.
12GG#J	.	.
12D#L	12bL 12dd# 12ff#	.
12B	12f# 12b 12dd#	.
12f#J	12d#J 12b	.
!!LO:LB:g=original
=23	=23	=23
*	*^	*
12e#L	4c#	12a#L	.
12B	.	12f##X	.
[12C#J	.	12g#J	.
12C#L]	4e#	8dd#L	.
12B	.	.	.
.	.	8cc#J	.
12e#J	.	.	.
12f#L	4d#	8bL	.
12B	.	.	.
.	.	8a#J	.
12G#J	.	.	.
=24	=24	=24	=24
12e#L	4c#	12a#L	.
12B	.	12f##X	.
[12C#J	.	12g#J	.
12C#L]	2e#	8dd#L	>
12B	.	.	.
.	.	8b#XJ	.
[12e#J	.	.	.
12e#L]	.	8dd#L	.
12B	.	.	.
.	.	8cc#J	.
12C#J	.	.	.
=25	=25	=25	=25
*	*	*^	*
12r	4.e#\	2cc#	4.gg#	p >
12G##XL	.	.	.	)
12A#J	.	.	.	)
12c#L	.	.	.	)
12A#	.	.	.	)
.	4f#\	.	8ff#	)
12C#J	.	.	.	)
12A#L	.	4ryy	8b#XL	]
12C#	.	.	.	.
.	8f#\	.	8cc#J	.
12FF#J	.	.	.	.
*	*	*v	*v	*
*	*v	*v	*
!!LO:LB:g=original
=26	=26	=26
*	*^	*
12r	2f# 2cc#	4.ff#	>
12G#L	.	.	)
12AnJ	.	.	)
12c#L	.	.	)
12A	.	.	)
.	.	8een	)
12C#J	.	.	)
12c#L	4en	8g#L	]
12C#	.	.	.
.	.	8anJ	.
12FF#J	.	.	.
=27	=27	=27	=27
12r	2dn 2f#	4.cc#	>
12G#L	.	.	)
12AnJ	.	.	)
12dnL	.	.	)
12A	.	.	)
.	.	8b	)
12BBJ	.	.	]
12AL	4r	8c#L	.
12BB	.	.	.
.	.	8dJ	.
12FF#J	.	.	.
*	*v	*v	*
=28	=28	=28
12r	12f#L	.
12GnL	12en	<
12G#XJ	12e#XJ	(
*	*^	*
12e#L	8a#L	4dd#	[
12B	.	.	.
.	8f##XJ	.	.
12C#J	.	.	.
*	*	*^	*
12BnL	4e#\	8a#L	8b#XL	>
12C#	.	.	.	)
.	.	8g#J	8cc#J	)
12FF#J	.	.	.	]
!!LO:LB:g=original
=29	=29	=29	=29	=29
12r	[4e#\	2cc#	[4gg#	.
12G##XL	.	.	.	.
12A#J	.	.	.	.
12c#L	8e#\L]	.	8gg#L]	.
12A#	.	.	.	.
.	8f#J	.	8ff#J	.
12C#J	.	.	.	<
*	*	*v	*v	*
12A#L	4en 4f#	12b#XL	.
12F#	.	12.cc#	.
12FF#J	.	.	.
.	.	24cc##XJk	.
=30	=30	=30	=30
*	*	*^	*
12BBL	2en\	4f#	2cc##X	.
12F#	.	.	.	.
12A#J	.	.	.	.
12f#L	.	12a#L	.	.
12A#	.	12g#	.	.
12F#J	.	12f#J	.	.
12BL	4d#\	6f#	4dd#	.
12A#	.	.	.	.
12BJ	.	12f##X	.	.
=31	=31	=31	=31	=31
12r	[4f##X\	2dd#	[4aa#	.
12A##XL	.	.	.	.
12B#XJ	.	.	.	.
12d#L	8f##\L]	.	8aa#L]	.
12B#	.	.	.	.
.	8g#J	.	8gg#J	.
12D#J	.	.	.	.
*	*	*v	*v	*
12B#L	4f#X 4g#	12cc##XL	.
12G#	.	12.dd#	.
12GG#J	.	.	.
.	.	24dd##XJk	.
!!LO:LB:g=original
=32	=32	=32	=32
*	*	*^	*
12C#L	2f#\	4g#	2dd##X	.
12G#	.	.	.	.
12B#XJ	.	.	.	.
12g#L	.	12b#XL	.	.
12B#	.	12a#	.	.
12G#J	.	12g#J	.	.
*	*	*v	*v	*
12c#L	6e# 6g#	4ee#	.
12B#	.	.	.
12c#J	12g##X	.	.
=33	=33	=33	=33
12r	2gg#X	4.dd# 4.ddd#	pp
12enL	.	.	.
12e#XJ	.	.	.
12bL	.	.	.
12e#	.	.	.
.	.	8cc# 8ccc#	.
12G#J	.	.	.
12e#L	4b 4cc#	12ff##XL	.
12c#	.	12.gg#	<
12C#J	.	.	.
.	.	24gg##XJk	.
=34	=34	=34	=34
*	*	*^	*
12F#L	4.b\	2cc#	4.gg##X	.
12c#	.	.	.	.
12e#J	.	.	.	.
12f#L	.	.	.	.
12c#	.	.	.	.
.	8a#\	.	8aa#	.
12F#J	.	.	.	.
*	*	*v	*v	*
12f#L	8a#L	16cc##XLL	.
.	.	16dd#	.
12B#X	.	.	.
.	8g#J	16gg#X	.
12G#J	.	.	.
.	.	16ff#JJ	.
*	*v	*v	*
!!LO:LB:g=original
=35	=35	=35
12f#L	12ff#L	mp
12Bn	12ee#	.
[12C#J	12dd#J	.
12C#L]	8cc#	>
12B	.	.
.	4a#	.
12f#J	.	.
12e#L	.	.
12B	.	.
.	8g#	.
12C#J	.	.
=36	=36	=36
*	*^	*
12e#L	2c#	2g#	>
12A#	.	.	)
12C#J	.	.	)
12FF#L	.	.	)
12C#	.	.	)
12A#J	.	.	]
12d#L	4r	4f#	.
12B#X	.	.	.
12c#J	.	.	.
*	*v	*v	*
=37	=37	=37
12f#L	12bL 12dd# 12ff#	pp
12G#	12.b 12.dd# 12.gg#	.
12A#J	.	.
.	24f#Jk 24b 24dd#	.
12BL	4f# 4b 4dd#	.
12C#	.	.
[12FF#J	.	.
12FF#L]	12f#L 12b 12cc#	<
12C#	12f# 12b 12dd#	(
12BJ	12d#J 12f# 12b	[
!!LO:LB:g=original
=38	=38	=38
*	*^	*
12f#L	4r	2a#	>
12A#	.	.	)
12BJ	.	.	)
12d#L	4r	.	)
12B	.	.	)
12C#J	.	.	)
12FF#L	4B 4d# 4f#	4g#	]
12C#	.	.	.
12BJ	.	.	.
=39	=39	=39	=39
*^	*	*	*
12f#L	4f#	4rf	8rff	.
12G#	.	.	.	.
.	.	.	8g#	.
[12A#J	.	.	.	.
*v	*v	*	*	*
12A#L] 12f#\	4re	[4dd#	.
12B	.	.	.
12C#J	.	.	.
12e#L	12f##XL	6dd#]	.
12B	12g#	.	<
12C#J	12g##XJ	12dd#	[
=40	=40	=40	=40
12f#L	2.a#	[4dd#	>
12A#	.	.	)
12C#J	.	.	)
12FF#L	.	12dd#L]	)
12C#	.	12cc#	)
12A#J	.	12b#XJ	]
4f#	.	12cc#L	.
.	.	12dd#	.
.	.	12ee#J	.
*	*v	*v	*
!!LO:LB:g=original
=41	=41	=41
12f#L	12bL 12dd# 12ff#	.
12G#	12.b 12.dd# 12.gg#	.
12A#J	.	.
.	24f#Jk 24b 24dd#	.
12BL	4f# 4b 4dd#	.
12C#	.	.
[12FF#J	.	.
12FF#L]	12f#L 12b 12cc#	<
12C#	12f# 12b 12dd#	(
12BJ	12d#J 12f# 12b	[
=42	=42	=42
*	*^	*
12f#L	4r	2a#	>
12A#	.	.	)
12BJ	.	.	)
12d#L	4r	.	)
12B	.	.	)
12C#J	.	.	]
12FF#L	4B 4d# 4f#	4g#	.
12C#	.	.	.
12BJ	.	.	.
=43	=43	=43	=43
*^	*	*	*
12f#L	4f#	4rf	8rff	.
12G#	.	.	.	.
.	.	.	8g#	.
[12A#J	.	.	.	.
*v	*v	*	*	*
12A#L] 12f#\	4re	[4dd#	.
12B	.	.	.
12C#J	.	.	.
12e#L	12f##XL	6dd#]	.
12B	12g#	.	.
12C#J	12g##XJ	12dd#	.
!!LO:LB:g=original
=44	=44	=44	=44
12f#L	2a#	4dd#	.
12A#	.	.	.
12C#J	.	.	.
12FF#\L	.	4cc#	.
12C#	.	.	.
12A#J	.	.	.
12e#L	12f##XL	6dd#	.
12B	12g#	.	.
12C#J	12g##XJ	12dd#	.
=45	=45	=45	=45
12f#L	2a#	4dd#	.
12A#	.	.	.
12C#J	.	.	.
12FF#\L	.	4cc#	.
12C#	.	.	.
12A#J	.	.	.
12e#L	12f##XL	6dd#	.
12B	12g#	.	.
12C#J	12g##XJ	12dd#	.
=46	=46	=46	=46
12f#L	2.a#	2dd#	.
12A#	.	.	.
12C#J	.	.	.
12FF#\L	.	.	.
12C#	.	.	.
12A#J	.	.	.
12f#L	.	4cc#	.
12A#	.	.	.
12C#J	.	.	.
*	*v	*v	*
=47	=47	=47
4FFF#	4aa#	.
4r	4r	.
4r	4r	.
==	==	==
*-	*-	*-
!!!system-decoration: {(*)}
!!!filter: flipper -a
!!!RDF**dynam: > = dim.
!!!ENC: Bryan Jacob Bell
!!!END: November 2021 to April 2022
!!!PED: Konstantin Igumnov and Yakov Milstein
!!!PTL: A.N. Skryabin: Polnoe sobranie sochinenii dlia fortepiano (Muzgiz)
!!!URL-pdf: https://github.com/bel28kent/Mysterium/blob/main/reference_editions/op42.pdf
